X: 179
T:Sayler's Delight. JaW.178
M:3/2
L:1/8
Q:300
C:"..a Hornpipe"
S:James Winder Ms, Lancashire, 1835-41
R:Triple H'pipe
O:England
A:Wyresdale,Lancashire
H:1/8
Z:vmp.Chris Partington, Aug 2004
K:F
F2f2(efge)f2cB|(ABcA) F2B2 (ABcA)|G2f2e2dcd4|D2G2G2B2ABcA:|!
|:a2gf (efge)f2cB|(ABcA)F2B2(ABcA)|a2gf (efge)d4|D2G2G2B2(ABcA):|!
|:B2dB (ABcA)G4|f2gf f2ed (ABcA)|B2dB (ABcA)G4|D2G2G2B2(ABcA):|]
